icons/solid/key.svg

<svg width="24" height="24" viewBox="0 0 24 24" fill="none" xmlns="http://www.w3.org/2000/svg">
<path fill-rule="evenodd" clip-rule="evenodd" d="M8 9C8 5.13401 11.134 2 15 2C18.866 2 22 5.13401 22 9C22 12.866 18.866 16 15 16C14.508 16 14.0269 15.9491 13.5622 15.852L12 17.4142C11.6249 17.7893 11.1162 18 10.5858 18H10C10 19.1046 9.10457 20 8 20C8 21.1046 7.10457 22 6 22H4C2.89543 22 2 21.1046 2 20V17.4142C2 16.8838 2.21071 16.3751 2.58579 16L8.14801 10.4378C8.05092 9.97307 8 9.49204 8 9ZM15 6C14.4477 6 14 6.44772 14 7C14 7.55228 14.4477 8 15 8C15.5523 8 16 8.44772 16 9C16 9.55228 16.4477 10 17 10C17.5523 10 18 9.55228 18 9C18 7.34315 16.6569 6 15 6Z" fill="currentColor"/>
</svg>

<svg width="24" height="24" fill="none" xmlns="http://www.w3.org/2000/svg"><path fill-rule="evenodd" clip-rule="evenodd" d="M8 9a7 7 0 115.562 6.852L12 17.414a2 2 0 01-1.414.586H10a2 2 0 01-2 2 2 2 0 01-2 2H4a2 2 0 01-2-2v-2.586A2 2 0 012.586 16l5.562-5.562A7.026 7.026 0 018 9zm7-3a1 1 0 100 2 1 1 0 011 1 1 1 0 102 0 3 3 0 00-3-3z" fill="currentColor"/></svg>
